public/icons/radio-checked.svg

<svg width="31" height="30" viewBox="0 0 31 30" fill="none" xmlns="http://www.w3.org/2000/svg">
<path d="M15.5 24C20.6363 24 24.8 19.9706 24.8 15C24.8 10.0294 20.6363 6 15.5 6C10.3638 6 6.20001 10.0294 6.20001 15C6.20001 19.9706 10.3638 24 15.5 24Z" stroke="#3D9970" stroke-width="2" stroke-linecap="round" stroke-linejoin="round"/>
<path d="M15.5 20C18.3535 20 20.6666 17.7614 20.6666 15C20.6666 12.2386 18.3535 10 15.5 10C12.6465 10 10.3333 12.2386 10.3333 15C10.3333 17.7614 12.6465 20 15.5 20Z" fill="#3D9970" stroke="#3D9970" stroke-width="2" stroke-linecap="round" stroke-linejoin="round"/>
</svg>

<svg width="31" height="30" fill="none" xmlns="http://www.w3.org/2000/svg"><path d="M15.5 24c5.14 0 9.3-4.03 9.3-9s-4.16-9-9.3-9c-5.14 0-9.3 4.03-9.3 9s4.16 9 9.3 9Z" stroke="#3D9970" stroke-width="2" stroke-linecap="round" stroke-linejoin="round"/><path d="M15.5 20a5.09 5.09 0 0 0 5.17-5c0-2.76-2.32-5-5.17-5a5.09 5.09 0 0 0-5.17 5c0 2.76 2.32 5 5.17 5Z" fill="#3D9970" stroke="#3D9970" stroke-width="2" stroke-linecap="round" stroke-linejoin="round"/></svg>
